static/card-icons/open-letter.svg

<svg viewBox="0 0 512 512" xmlns="http://www.w3.org/2000/svg"><path d="m506.877 214.663-84.877-74.268v-34.443c0-8.284-6.716-15-15-15h-40.957c-.523-.519-79.788-79.321-80.342-79.807-18.688-16.351-46.025-13.347-60.098.65l-79.646 79.157h-40.957c-8.284 0-15 6.716-15 15v34.443l-84.877 74.268c-3.256 2.848-5.123 6.963-5.123 11.289v241c0 24.8 20.194 45 45 45h422c24.822 0 45-20.22 45-45v-241c0-4.325-1.867-8.44-5.123-11.289zm-84.877-34.405 52.221 45.694-52.221 45.693zm-175.645-146.792c5.567-4.62 13.723-4.62 19.29 0l57.841 57.485h-134.972zm-126.355 87.486h272v176.944l-49.805 43.579-56.563-49.526c-16.894-14.781-42.372-14.781-59.27.003l-56.559 49.522-49.803-43.579zm-30 59.306v91.387l-52.221-45.694zm-60 283.628v-204.878l117.034 102.404zm24.908 18.066 191.214-167.426c5.631-4.927 14.125-4.928 19.752-.003l191.218 167.429zm427.092-18.066-117.034-102.474 117.034-102.404z"/><path d="m347 150.952h-182c-8.284 0-15 6.716-15 15s6.716 15 15 15h182c8.284 0 15-6.716 15-15s-6.716-15-15-15z"/><path d="m347 210.952h-182c-8.284 0-15 6.716-15 15s6.716 15 15 15h182c8.284 0 15-6.716 15-15s-6.716-15-15-15z"/></svg>

<?xml version="1.0" encoding="iso-8859-1"?>
<!-- Generator: Adobe Illustrator 19.0.0, SVG Export Plug-In . SVG Version: 6.00 Build 0)  -->
<svg version="1.1" id="Layer_1" xmlns="http://www.w3.org/2000/svg" xmlns:xlink="http://www.w3.org/1999/xlink" x="0px" y="0px"
	 viewBox="0 0 512 512" style="enableBackground:new 0 0 512 512;" xml:space="preserve">
<g>
	<g>
		<path d="M506.877,214.663L422,140.395v-34.443c0-8.284-6.716-15-15-15h-40.957c-0.523-0.519-79.788-79.321-80.342-79.807
			c-18.688-16.351-46.025-13.347-60.098,0.65l-79.646,79.157H105c-8.284,0-15,6.716-15,15v34.443L5.123,214.663
			C1.867,217.511,0,221.626,0,225.952v241c0,24.8,20.194,45,45,45h422c24.822,0,45-20.22,45-45v-241
			C512,221.627,510.133,217.512,506.877,214.663z M422,180.258l52.221,45.694L422,271.645V180.258z M246.355,33.466
			c5.567-4.62,13.723-4.62,19.29,0l57.841,57.485H188.514L246.355,33.466z M120,120.952h272v176.944l-49.805,43.579l-56.563-49.526
			c-16.894-14.781-42.372-14.781-59.27,0.003l-56.559,49.522L120,297.895V120.952z M90,180.258v91.387l-52.221-45.694L90,180.258z
			 M30,463.886V259.008l117.034,102.404L30,463.886z M54.908,481.952l191.214-167.426c5.631-4.927,14.125-4.928,19.752-0.003
			l191.218,167.429H54.908z M482,463.886L364.966,361.412L482,259.008V463.886z"/>
	</g>
</g>
<g>
	<g>
		<path d="M347,150.952H165c-8.284,0-15,6.716-15,15s6.716,15,15,15h182c8.284,0,15-6.716,15-15S355.284,150.952,347,150.952z"/>
	</g>
</g>
<g>
	<g>
		<path d="M347,210.952H165c-8.284,0-15,6.716-15,15s6.716,15,15,15h182c8.284,0,15-6.716,15-15S355.284,210.952,347,210.952z"/>
	</g>
</g>
<g>
</g>
<g>
</g>
<g>
</g>
<g>
</g>
<g>
</g>
<g>
</g>
<g>
</g>
<g>
</g>
<g>
</g>
<g>
</g>
<g>
</g>
<g>
</g>
<g>
</g>
<g>
</g>
<g>
</g>
</svg>
